X:1
T:Gavotte
T:in G minor
T:J.S. Bach
T:Arr. Joseph R. Lewis 2013; released to public domain under the CC0 license.
Z:Arr. Joseph R. Lewis 2013; released to public domain under the CC0 license.
L:1/8
M:2/2
K:Bb
V:1 bass nm="Violoncello"
V:1
 !0!G,!1!A,!2!B,!1!C | !4!D2 !1!C!2!B, !1!A,2 !1!B,!4!C | !2!B,!1!A, !0!G,2 (!4!E!2!D)(D!4!C) | %3
 (!4!C!2!B,)(!2!B,!1!A,) (A,!0!G,)(G,A,) | G,!4!^F,!1!=E,!0!D, G,A,B,C | D2 CB, A,2 B,C | %6
 B,A, G,2 (!4!E!2!D)(D!4!C) | (C!1!B,)(B,C) (!1!A,3 !0!G,) | G,4 :| !1!B,!4!C!1!D!2!E | %10
 !1!F2 F2 !3!G!1!F!2!E!1!D | !4!C2 C2 !1!B,2 !1!C2 | !4!D2 !1!C2 !4!D2 !1!B,2 | %13
 !4!C4 !1!B,!4!C!1!D!2!E | F2 F2 GFED | C2 C2 (!4!F!1!B,)(B,!4!C) | (C!1!D)(D!2!E) (!4!C3 !1!B,) | %17
 B,4 G,A,B,C | D2 CB, A,2 B,C | B,A, G,2 (ED)(DC) | (CB,)(B,A,) (A,G,)(G,A,) | G,^F,=E,D, G,A,B,C | %22
 D2 CB, A,2 B,C | B,A, G,2 (ED)(DC) | (CB,)(B,C) (A,3 G,) | !fermata!G,4 |] %26

